X:1
T:Title
%%score ( 1 2 ) ( 3 4 )
L:1/8
Q:1/4=90
M:4/4
K:Ab
V:1 treble nm="Strings 1, Soprano"
V:2 treble 
V:3 bass nm="Strings 1, Bass"
V:4 bass 
V:1
 z4 z2 [A,C][B,D] | [CE][CE][DF][CE] [EA]2 [Ec][EA] | [DF][DA][FA][DF] [CE]2 [Ec][Ec] | %3
w: 1.~There's~ a~|new~ and~ liv ing~ way~ O pened~|in~ the~ Lord~ to day�~ Oh,~ what~|
 [EB][EB][Ee][Ee] [Ee][EB][Ec][Ed] | [Ec]6 EE | [DF][DA][Dd][DA] [DF]2 [DF][Fd] | %6
w: treas ures~ are~ un veiled~ be fore~ our~|eyes!~ 'Tis~ the~|way~ of~ ho li ness,~ Per fect~|
 [Ec][EB][Ec][EA] [CE]2 [Fd][Fd] | [Ec][EB][EA][Ec] [EB]E[EG][EB] | [CA]6 [Ec][Ec] | %9
w: love~ and~ right eous ness,~ Then~ from~|sin~ and~ all~ con fu sion~ let~ us~|rise.~ * *|
 [Fd][Fd][Fd][Fd] [Ff]2 [Ff][Ff] | [Af][Ae][Ae][Ec] [Ee]2 [Ee][Ee] | %11
w: ||
 [Ee][EB][EB][EB] [Ee][EB][Ec][Ed] | [Ec]6 [Ec][Ec] | [Fd][Fd][Fd][Fd] [Ff]2 [Ff][Ff] | %14
w: |||
 [Ff][Ee][Ee][Ec] [Ee]2[Q:1/4=90] [Ff][Ff][Q:1/4=12] | [Ee][Ec][FA][Fd] [Ec][EA][EB][EB] | A6 z2 |] %17
w: |||
V:2
 x8 | x8 | x8 | x8 | x8 | x8 | x8 | x8 | x8 | x8 | x8 | x8 | x8 | x8 | x8 | x8 | EEFF E2 z2 |] %17
V:3
 z4 z2 [A,,E,][A,,E,] | [A,,A,][A,,A,][A,,A,][A,,A,] [A,,A,]2 [A,,A,][A,,A,] | %2
 [D,A,][D,A,][D,A,][D,A,] [A,,A,]2 [A,,A,][A,,A,] | %3
 [E,B,][E,B,][E,B,][E,B,] [E,B,][E,B,][E,B,][E,B,] | A,6 [A,,A,][A,,A,] | %5
 [D,A,][D,A,][D,A,][D,A,] [D,A,]2 [D,A,][D,A,] | %6
 [A,,A,][A,,A,][A,,A,][A,,A,] [A,,A,]2 [F,A,][F,A,] | %7
 [E,A,][E,A,][E,A,][E,A,] [E,E][E,E][E,E][E,E] | [A,,C]6 A,A, | %9
 [D,A,][D,A,][D,A,][D,A,] [D,A,]2 [D,D][D,D] | [A,C][A,C][A,C][A,C] [A,C]2 [A,C][A,C] | %11
 [E,B,][E,B,][E,B,][E,B,] [E,B,][E,B,][E,B,][E,B,] | A,2- [C,A,-][E,A,] A,2 [E,A,][E,A,] | %13
 [D,A,][D,A,][D,A,][D,A,] [D,D]2 [D,D][D,D] | [A,C][A,C][A,C][A,C] [A,C]2 [A,D][A,D] | %15
 [A,C][A,E][A,,C][A,,D] [E,C][E,C][E,D][E,D] | C[K:treble]CDD C2 z2 |] %17
V:4
 x8 | x8 | x8 | x8 | x8 | x8 | x8 | x8 | x8 | x8 | x8 | x8 | A,,2 z2 z4 | x8 | x8 | x8 | %16
 A,,6[K:treble] z2 |] %17

